Adwaita++-Light/panel/16/rhythmbox-playing.svg

<svg height="16" width="16" xmlns="http://www.w3.org/2000/svg">
  <path d="m2.5 1c-.831 0-1.5.669-1.5 1.5v11c0 .831.669 1.5 1.5 1.5h8c.831 0 1.5-.669 1.5-1.5v-11c0-.831-.669-1.5-1.5-1.5zm1.5 2c.5524 0 1 .4478 1 1s-.4476 1-1 1-1.0002-.4478-1-1c-.0002-.5522.4476-1 1-1zm5 0c.552 0 1 .4478 1 1s-.448 1-1 1-1-.4478-1-1 .448-1 1-1zm-2.5 3c1.933 0 3.5 1.567 3.5 3.5s-1.567 3.5-3.5 3.5c-1.9334 0-3.5005-1.567-3.5-3.5-.0005-1.933 1.5666-3.5 3.5-3.5zm0 2c-.828 0-1.5.672-1.5 1.5s.672 1.5 1.5 1.5 1.5-.672 1.5-1.5-.672-1.5-1.5-1.5zm6.966797 3c-.256614-.0072-.467242.241874-.466797.550781v1.449219 1.449219c-.000148.422609.379093.687064.683594.476562l1.044922-.724609 1.042968-.72461c.30449-.211505.30449-.739666 0-.951171l-1.042968-.726563-1.044922-.724609c-.06603-.04593-.140567-.071859-.216797-.074219z" fill="#444" fill-rule="evenodd"/>
</svg>

<svg xmlns="http://www.w3.org/2000/svg" width="16" height="16" version="1">
 <defs>
  <style id="current-color-scheme" type="text/css">
   .ColorScheme-Text { color:#444444; } .ColorScheme-Highlight { color:#4285f4; }
  </style>
 </defs>
 <path style="fill:currentColor;fill-rule:evenodd" class="ColorScheme-Text" d="M 2.5 1 C 1.669 1 1 1.669 1 2.5 L 1 13.5 C 1 14.331 1.669 15 2.5 15 L 10.5 15 C 11.331 15 12 14.331 12 13.5 L 12 2.5 C 12 1.669 11.331 1 10.5 1 L 2.5 1 z M 4 3 C 4.5524 3 5 3.4478 5 4 C 5 4.5522 4.5524 5 4 5 C 3.4476 5 2.9998 4.5522 3 4 C 2.9998 3.4478 3.4476 3 4 3 z M 9 3 C 9.552 3 10 3.4478 10 4 C 10 4.5522 9.552 5 9 5 C 8.448 5 8 4.5522 8 4 C 8 3.4478 8.448 3 9 3 z M 6.5 6 C 8.433 6 10 7.567 10 9.5 C 10 11.433 8.433 13 6.5 13 C 4.5666 13 2.9995 11.433 3 9.5 C 2.9995 7.567 4.5666 6 6.5 6 z M 6.5 8 C 5.672 8 5 8.672 5 9.5 C 5 10.328 5.672 11 6.5 11 C 7.328 11 8 10.328 8 9.5 C 8 8.672 7.328 8 6.5 8 z M 13.466797 11 C 13.210183 10.9928 12.999555 11.241874 13 11.550781 L 13 13 L 13 14.449219 C 12.999852 14.871828 13.379093 15.136283 13.683594 14.925781 L 14.728516 14.201172 L 15.771484 13.476562 C 16.075974 13.265057 16.075974 12.736896 15.771484 12.525391 L 14.728516 11.798828 L 13.683594 11.074219 C 13.617564 11.028289 13.543027 11.00236 13.466797 11 z"/>
</svg>
